src/assets/images/software.svg

<svg height="44" viewBox="0 0 47 44" width="47" xmlns="http://www.w3.org/2000/svg"><path d="m13.6535 44 5.0055-12.3068165c-3.102-1.6841947-5.2304286-4.894382-5.2304286-8.6220225 0-5.4612734 4.5086429-9.8876404 10.0714286-9.8876404s10.0714286 4.426367 10.0714286 9.8876404c0 3.7243446-2.1217143 6.9279401-5.2203572 8.6154308l5.0055 12.3068164c8.0504286-3.6617228 13.6434286-11.6410486 13.6434286-20.9222472 0-12.7418726-10.5212857-23.071161-23.5-23.071161s-23.5 10.3292884-23.5 23.071161c0 9.2844944 5.59971429 17.270412 13.6535 20.928839z" fill="#5e9ffb"/></svg>

<?xml version="1.0" encoding="UTF-8"?>
<svg width="47px" height="44px" viewBox="0 0 47 44" version="1.1" xmlns="http://www.w3.org/2000/svg" xmlns:xlink="http://www.w3.org/1999/xlink">
    <!-- Generator: Sketch 50 (54983) - http://www.bohemiancoding.com/sketch -->
    <title>Shape</title>
    <desc>Created with Sketch.</desc>
    <defs></defs>
    <g id="🔥企业开源软件管理" stroke="none" stroke-width="1" fill="none" fill-rule="evenodd">
        <g id="开源软件版本变更申请" transform="translate(-418.000000, -271.000000)" fill="#5E9FFB" fill-rule="nonzero">
            <g id="Group-31" transform="translate(357.000000, 93.000000)">
                <g id="Group-18" transform="translate(0.000000, 77.000000)">
                    <g id="docker" transform="translate(44.000000, 84.000000)">
                        <g id="功能页-加入开源项目" transform="translate(17.000000, 17.000000)">
                            <path d="M13.6535,44 L18.659,31.6931835 C15.557,30.0089888 13.4285714,26.7988015 13.4285714,23.071161 C13.4285714,17.6098876 17.9372143,13.1835206 23.5,13.1835206 C29.0627857,13.1835206 33.5714286,17.6098876 33.5714286,23.071161 C33.5714286,26.7955056 31.4497143,29.9991011 28.3510714,31.6865918 L33.3565714,43.9934082 C41.407,40.3316854 47,32.3523596 47,23.071161 C47,10.3292884 36.4787143,0 23.5,0 C10.5212857,0 0,10.3292884 0,23.071161 C0,32.3556554 5.59971429,40.341573 13.6535,44 Z" id="Shape"></path>
                        </g>
                    </g>
                </g>
            </g>
        </g>
    </g>
</svg>
